X:1
T:Title
%%score { ( 1 2 ) | ( 3 4 ) }
L:1/8
Q:1/4=120
M:6/4
K:G
V:1 treble nm="Grand Piano"
V:2 treble 
V:3 bass 
V:4 bass 
V:1
 B3 A [DG]2 B3 A [DG]2 | [CEG]4 [G,CE]2 [CEG]4 [G,CE]2 | [G,B,D]4 [B,DG]2 [DGB]4 [DG]2 | %3
w: Grace~Weiser * * * * *|||
 [DGB]4 [DGB]2 [DFA]6 | B3 A [DG]2 B3 A [DG]2 | [CEG]4 [G,CE]2 [CEG]4 [G,CE]2 | %6
w: |||
 [G,B,D]4 [B,DG]2 [DGB]4 [B,G]2 | [CFA]4 [B,DG]2 [B,DG]6 | [B,DG]4 [B,DG]2 [A,FA]4 [DFA]2 | %9
w: |||
 B4 d2 d6 | d4 e2 d4 B2 | B2 A2 [^CEG]2 [DFA]6 | [B,DG]4 [B,DG]2 [A,FA]4 [A,FA]2 | %13
w: ||||
 .[GB]6[K:bass][K:treble] z6 | d4 e2 d2 B2 [B,DG]2 | [CFA]4 [B,DG]2 [B,DG]6 |] %16
w: |||
V:2
 .D6 .[DG]6 | x12 | x12 | x12 | .D6 .[DG]6 | x12 | x12 | x12 | x12 | x12 | x12 | x12 | x12 | %13
 z2[K:bass] F,,2[K:treble] [DB]2 [Ec]6 | x12 | x12 |] %16
V:3
 G,,3 A,, B,,2 G,,3 A,, B,,2 | C,4 C,2 C,4 C,2 | G,,4 G,,2 G,,4 B,,2 | D,4 D,2 D,6 | %4
 G,,3 A,, B,,2 G,,3 A,, B,,2 | C,4 C,2 C,4 C,2 | D,4 D,2 D,4 D,2 | D,4 D,2 G,,6 | G,4 G,2 D,4 D,2 | %9
 [G,DG]4 [G,B,G]2 [G,B,G]6 | [G,B,G]4 [G,CG]2 [G,B,G]4 [G,DG]2 | D2- [F,D]2 E,2 D,6 | %12
 G,4 G,2 D,4 D,2 | .[G,,G,]4 [G,,G,]2 [C,G,]6 | [G,B,G]4 [G,CG]2 [G,G]2- [G,DG]2 G,2 | %15
 D,4 D,2 G,,6 |] %16
V:4
 x12 | x12 | x12 | x12 | x12 | x12 | x12 | x12 | x12 | x12 | x12 | .G,6 z6 | x12 | x12 | z6 .B,6 | %15
 x12 |] %16

